X: 30614
T: One That Was Lost, The
R: jig
M: 6/8
K: Edorian
f|:edB BAF|EFD EFA|BAF ~D3|DFA def|
edB BAF|EFD EFA|dfb afd|1 efe e2f:|2 efe e2d||
~B3 efa|baf edB|~d3 Bdd|AFA dBA|
~B3 ef/g/a|baf edB|dfb afd|efe e2d|
~B3 efa|baf edB|~d3 Bdd|AFA def|
~g3 ~f3|efe dBA|dfb afd|efe e2f||

